cssgg/screen-wide.svg

<svg
  width="24"
  height="24"
  viewBox="0 0 24 24"
  fill="none"
  xmlns="http://www.w3.org/2000/svg"
>
  <path
    fill-rule="evenodd"
    clip-rule="evenodd"
    d="M11 16H3C1.34315 16 0 14.6569 0 13V8C0 6.34315 1.34315 5 3 5H21C22.6569 5 24 6.34315 24 8V13C24 14.6569 22.6569 16 21 16H13V17H15C15.5523 17 16 17.4477 16 18C16 18.5523 15.5523 19 15 19H9C8.44771 19 8 18.5523 8 18C8 17.4477 8.44771 17 9 17H11V16ZM3 7H21C21.5523 7 22 7.44772 22 8V13C22 13.5523 21.5523 14 21 14H3C2.44772 14 2 13.5523 2 13V8C2 7.44772 2.44772 7 3 7Z"
    fill="currentColor"
  />
</svg>

<svg viewBox="0 0 24 24" xmlns="http://www.w3.org/2000/svg"><path fill-rule="evenodd" d="M11 16H3c-1.66 0-3-1.35-3-3V8c0-1.66 1.34-3 3-3h18c1.65 0 3 1.34 3 3v5c0 1.65-1.35 3-3 3h-8v1h2c.55 0 1 .44 1 1 0 .55-.45 1-1 1H9c-.56 0-1-.45-1-1 0-.56.44-1 1-1h2v-1ZM3 7h18c.55 0 1 .44 1 1v5c0 .55-.45 1-1 1H3c-.56 0-1-.45-1-1V8c0-.56.44-1 1-1Z"/></svg>
